X:323
T:Dagestan
Z:Jack Campin, http://www.campin.me.uk/
F:Jack Campin's Nine-Note Tunebook
% last edit 03-03-2013
S:Haywood, Folk Songs of the World
G:lament from Azerbaijan on the destruction of Dagestan in the USSR Civil War
M:6/8
L:1/8
Q:3/8=80
K:Emin %Transposed from GMIN
 EE2   B3  |(cB) (BA) (AG)|A6     |\
(G>F)G A3  |(Ac) (BA) (GF)|E6    :|
(GF)G  A3  |(Ac) (BA) (GF)|E3 =FED|\
(G=F)G E2^F| Gz  (GF) (FE)|E6    |]

